X:5
T:The Taur Polka
R:polka
S:Session at Fleadh Ceol in Sligo, 1990
M:2/4
L:1/8
K:Dmix
AD    FA | d^c AB | =c>B  cE | EF  GE |
AD    FA | d^c AB | =c>B  cE | ED  D2 :|
fg/f/ ed | ^cA Ae | fg/f/ ef | ag e=f | 
fg/f/ ed | ^cA AB | =c>B  cE | ED   D2:|
